build/img/icon-cash.svg

<svg width="21" height="18" viewBox="0 0 21 18" fill="none" xmlns="http://www.w3.org/2000/svg">
<path d="M19.0312 5.14299H18.375V3.21444C18.375 2.85831 18.081 2.57159 17.7188 2.57159H1.96875C0.883312 2.57159 0 3.43687 0 4.50014V16.0714C0 17.1347 0.883312 18 1.96875 18H19.0312C19.3935 18 19.6875 17.712 19.6875 17.3571V5.78584C19.6875 5.4297 19.3935 5.14299 19.0312 5.14299Z" fill="#FFDD2D"/>
<path d="M1.96875 3.8573H17.0625V5.143H1.96875C1.6065 5.143 1.3125 4.855 1.3125 4.50015C1.3125 4.1453 1.6065 3.8573 1.96875 3.8573Z" fill="#FAFAFA"/>
<path d="M20.3438 12.8573H16.4062C15.3195 12.8573 14.4375 11.9934 14.4375 10.9288C14.4375 9.86295 15.3195 9.00024 16.4062 9.00024H20.3438C20.706 9.00024 21 9.28824 21 9.64309V12.2145C21 12.5693 20.706 12.8573 20.3438 12.8573Z" fill="#C8AD20"/>
<path d="M16.8119 5.14301L14.368 0.355061C14.2053 0.0374937 13.8115 -0.0897905 13.4873 0.0670648L3.12646 5.14301H16.8119Z" fill="#37BB44"/>
<path d="M1.3125 5.14291H14.1868L11.7429 0.354968C11.5802 0.0374007 11.1864 -0.0898833 10.8623 0.0682575L1.3125 4.74563V5.14291Z" fill="#45DC54"/>
</svg>

<svg width="21" height="18" fill="none" xmlns="http://www.w3.org/2000/svg"><path d="M19.031 5.143h-.656V3.214a.65.65 0 00-.656-.642H1.969C.883 2.572 0 3.437 0 4.5v11.571C0 17.135.883 18 1.969 18H19.03a.65.65 0 00.657-.643V5.786a.65.65 0 00-.657-.643z" fill="#FFDD2D"/><path d="M1.969 3.857h15.094v1.286H1.969a.65.65 0 01-.657-.643.65.65 0 01.657-.643z" fill="#FAFAFA"/><path d="M20.344 12.857h-3.938c-1.086 0-1.968-.864-1.968-1.928 0-1.066.881-1.929 1.968-1.929h3.938a.65.65 0 01.656.643v2.571a.65.65 0 01-.656.643z" fill="#C8AD20"/><path d="M16.812 5.143L14.368.355a.665.665 0 00-.88-.288L3.125 5.143h13.686z" fill="#37BB44"/><path d="M1.313 5.143h12.874L11.743.355a.663.663 0 00-.88-.287l-9.55 4.678v.397z" fill="#45DC54"/></svg>
